X:693
T:Annie May Chisholm's March
R:pipe march
C:Brenda Stubbert
O:20th Century Cape Breton
S:Tune of the Month, Aug. 1999
A:http://www.capebretonisland.com/Music/Stubbert
D:Some Tasty Tunes, Brenda Stubbert, 1999
N:Contacts ...
N:Recordings and bookings
N:..... 
N:Tune books and related recordings
N:..... Cranford Publications <http://www.cranfordpub.com>
B:Previously Unpublished.
H:Copyrights:published by Stubbert Music (SOCAN)
Z:Paul Stewart Cranford - psc@cranfordpub.com
Q:244
L:1/8
M:C|
K:A
E2|A>BcA|c<ea>e f2 e<c|e>fa>e f<ac>e|f2 B2 B2 c<e|!
A>BcA|c<ea>e f2 e<c|e>fa>e f<aB<d|c2 A2 A2:|!
|:c<e|f>d d/d/d d>ef<a|e>c c/c/c c>BA>c|d>cd<f e<ca>A|c2 B2 B2 c<e|!
[1f>d d/d/d d>ef<a|e>c c/c/c c>BA>c|d>ef<a c<eB<d|c2 A2 A2:|!
[2A>BcA|c<ea>e f2 e<c|e>fa>e f<aB<d|c2 A2 A2:|!
